X:285
T:Brian Bohru's March
M:6/8
K:ADor
e2 d || c>BA A>ed|c>BA A>dc|B>AG G>dc|B>AG G>ed|
c>BA A>ed|c>BA A3|A>Bd e2 d|1 c>BA A>ed :|2 c>BA A3 |
|:A>Bd e2 d|e2 d edB|G>AB d2 B| d2 B d>BG|
A>Bd e2 d|e2 d edB|A>Bd e2 d|1 c>BA A3 :|2 c>BA A2 B |>|
c>BA a2 A|c>BA a2 A|B>AG g2 G|B>AG g2 G|
c>BA a2 A|c>BA a3|A>Bd e2 d|1 c>BA A2 B :|2 c>BA A3 |>|
